src/assets/quote-icon.svg

<svg width="119" height="95" viewBox="0 0 119 95" fill="none" xmlns="http://www.w3.org/2000/svg">
<path d="M71.8646 95L71.8646 87.0443C82.9389 80.4926 90.756 74.3621 95.2694 68.6995C99.8294 63.0369 102.063 56.5788 102.063 49.2783C102.063 45.4409 101.365 42.5862 100.016 40.6675C98.6662 38.7488 96.9911 37.8128 94.9903 37.8128C94.2458 37.8128 93.3152 37.9532 92.1519 38.234C90.9886 38.5148 89.7323 38.8892 88.476 39.3104C87.2197 39.7783 85.9633 40.1527 84.8001 40.3867C83.6368 40.6675 82.6597 40.8079 81.9617 40.8079C77.2621 40.8079 72.9813 38.936 69.1658 35.1921C65.3503 31.4483 63.4426 26.9089 63.4426 21.6207C63.4426 17.9704 64.1871 14.7882 65.6295 12.0271C67.0719 9.31282 68.9332 7.01971 71.2132 5.19458C73.4932 3.36946 76.0058 2.05912 78.8442 1.21676C81.6825 0.374386 84.4278 1.22364e-05 87.1731 1.24764e-05C91.3609 1.28425e-05 95.3625 0.935972 99.1315 2.85469C102.947 4.77341 106.344 7.3473 109.322 10.67C112.3 13.9458 114.673 17.7833 116.394 22.1823C118.116 26.5813 119 31.3079 119 36.4089C119 42.2586 118.162 48.0148 116.394 53.6773C114.673 59.3399 111.881 64.7217 108.112 69.8227C104.296 74.9236 99.4107 79.6502 93.4082 83.9089C87.4058 88.2143 80.2401 91.9113 71.9111 95L71.8646 95ZM8.30149 95L8.30149 87.0443C19.3757 80.4926 27.1929 74.3621 31.7063 68.6995C36.2663 63.0369 38.4998 56.5788 38.4998 49.2783C38.4998 45.4409 37.8018 42.5862 36.4525 40.6675C35.1031 38.7488 33.428 37.8128 31.4272 37.8128C30.6827 37.8128 29.752 37.9532 28.5888 38.234C27.4255 38.5148 26.1692 38.8892 24.9129 39.3103C23.6566 39.7783 22.4002 40.1527 21.237 40.3867C20.0737 40.6675 19.0966 40.8079 18.3986 40.8079C13.699 40.8079 9.41822 38.936 5.60271 35.1921C1.78721 31.4483 -0.120538 26.9089 -0.120538 21.6207C-0.120538 17.9704 0.623962 14.7882 2.06641 12.0271C3.50885 9.31281 5.37006 7.0197 7.65006 5.19458C9.93005 3.36946 12.4427 2.05911 15.2811 1.21675C18.1194 0.374381 20.8647 6.67953e-06 23.61 6.91953e-06C27.7978 7.28564e-06 31.7994 0.935966 35.5684 2.85468C39.3839 4.7734 42.7806 7.34729 45.7586 10.6699C48.7365 13.9458 51.1096 17.7833 52.8312 22.1823C54.5528 26.5813 55.4369 31.3079 55.4369 36.4089C55.4369 42.2586 54.5994 48.0148 52.8312 53.6773C51.1096 59.3399 48.3177 64.7217 44.5488 69.8227C40.7333 74.9236 35.8476 79.6502 29.8451 83.9089C23.8427 88.2143 16.677 91.9113 8.34801 95L8.30149 95Z" fill="#3C3B3B"/>
</svg>

<svg xmlns="http://www.w3.org/2000/svg" width="119" height="95" fill="none" viewBox="0 0 119 95">
    <path fill="#3C3B3B" d="M71.865 95v-7.956C82.939 80.493 90.756 74.362 95.269 68.7c4.56-5.663 6.794-12.121 6.794-19.422 0-3.837-.698-6.692-2.047-8.61-1.35-1.92-3.025-2.855-5.026-2.855-.744 0-1.675.14-2.838.421a45.02 45.02 0 0 0-3.676 1.076c-1.256.468-2.513.843-3.676 1.077-1.163.28-2.14.42-2.838.42-4.7 0-8.98-1.871-12.796-5.615-3.816-3.744-5.723-8.283-5.723-13.571 0-3.65.744-6.833 2.186-9.594 1.443-2.714 3.304-5.007 5.584-6.832a22.065 22.065 0 0 1 7.631-3.978A28.942 28.942 0 0 1 87.174 0c4.187 0 8.188.936 11.957 2.855 3.816 1.918 7.213 4.492 10.191 7.815 2.978 3.276 5.351 7.113 7.072 11.512 1.722 4.4 2.606 9.126 2.606 14.227 0 5.85-.838 11.606-2.606 17.268-1.721 5.663-4.513 11.045-8.282 16.146-3.816 5.1-8.701 9.827-14.704 14.086C87.406 88.214 80.24 91.91 71.911 95h-.046ZM8.3 95v-7.956C19.376 80.493 27.193 74.362 31.706 68.7c4.56-5.663 6.794-12.121 6.794-19.422 0-3.837-.698-6.692-2.047-8.61-1.35-1.92-3.025-2.855-5.026-2.855-.744 0-1.675.14-2.838.421-1.163.28-2.42.655-3.676 1.076-1.256.468-2.513.843-3.676 1.077-1.163.28-2.14.42-2.838.42-4.7 0-8.98-1.871-12.796-5.615C1.787 31.448-.121 26.91-.121 21.621c0-3.65.745-6.833 2.187-9.594C3.51 9.313 5.37 7.02 7.65 5.195a22.065 22.065 0 0 1 7.631-3.978A28.942 28.942 0 0 1 23.61 0c4.188 0 8.19.936 11.958 2.855 3.816 1.918 7.213 4.492 10.19 7.815 2.978 3.276 5.352 7.113 7.073 11.512 1.722 4.4 2.606 9.126 2.606 14.227 0 5.85-.838 11.606-2.606 17.268-1.721 5.663-4.513 11.045-8.282 16.146-3.816 5.1-8.701 9.827-14.704 14.086C23.843 88.214 16.677 91.91 8.348 95h-.047Z"/>
</svg>
